X:1
T:HIGHLAND SKIP -- REEL
B:Ryan's Mammoth Collection of Fiddle Tunes
R:reel
Z:Contributed 20000418193716 by John Chambers jchambers:casc.com
Z:Contributed by Ray Davies,  ray:davies99.freeserve.co.uk
M:2/4
L:1/16
K:Emix
(uec) |\
.B2(GB) EBGB | .B2(GB) cFFc | .B2(GB) EBGB | Bcef gfec |
.B2(GB) EBGB | .B2(GB) cFFc | .B2(GB) EBGB | Bcef gee2 H|]
Bege bege | Bege (af).f2 | Bege bege | Bcef (ge).e2 |
Bege bege | Bege  affa | gafg efec | Bcef gee2 !D.C.!y|]
